icons/Bootstrap.svg

<svg xmlns="http://www.w3.org/2000/svg" width="256" height="256" fill="none" viewBox="0 0 256 256"><rect width="256" height="256" fill="url(#paint0_linear_158_100)" rx="60"/><g filter="url(#filter0_d_158_100)"><path fill="url(#paint1_linear_158_100)" d="M131.97 196.157C161.646 196.157 179.529 181.626 179.529 157.66C179.529 139.543 166.77 126.428 147.823 124.351V123.597C161.743 121.332 172.666 108.405 172.666 93.9689C172.666 73.3992 156.427 60 131.68 60H76V196.157H131.97ZM97.6533 77.2674H126.46C142.12 77.2674 151.013 84.2497 151.013 96.8935C151.013 110.387 140.67 117.935 121.917 117.935H97.6533V77.2674V77.2674ZM97.6533 178.89V134.071H126.266C146.76 134.071 157.393 141.619 157.393 156.339C157.393 171.058 147.05 178.89 127.523 178.89H97.6533V178.89Z"/><path stroke="#fff" stroke-width="2" d="M131.97 196.157C161.646 196.157 179.529 181.626 179.529 157.66C179.529 139.543 166.77 126.428 147.823 124.351V123.597C161.743 121.332 172.666 108.405 172.666 93.9689C172.666 73.3992 156.427 60 131.68 60H76V196.157H131.97ZM97.6533 77.2674H126.46C142.12 77.2674 151.013 84.2497 151.013 96.8935C151.013 110.387 140.67 117.935 121.917 117.935H97.6533V77.2674V77.2674ZM97.6533 178.89V134.071H126.266C146.76 134.071 157.393 141.619 157.393 156.339C157.393 171.058 147.05 178.89 127.523 178.89H97.6533V178.89Z"/></g><defs><filter id="filter0_d_158_100" width="137.529" height="170.157" x="59" y="47" color-interpolation-filters="sRGB" filterUnits="userSpaceOnUse"><feFlood flood-opacity="0" result="BackgroundImageFix"/><feColorMatrix in="SourceAlpha" result="hardAlpha" type="matrix" values="0 0 0 0 0 0 0 0 0 0 0 0 0 0 0 0 0 0 127 0"/><feOffset dy="4"/><feGaussianBlur stdDeviation="8"/><feColorMatrix type="matrix" values="0 0 0 0 0 0 0 0 0 0 0 0 0 0 0 0 0 0 0.15 0"/><feBlend in2="BackgroundImageFix" mode="normal" result="effect1_dropShadow_158_100"/><feBlend in="SourceGraphic" in2="effect1_dropShadow_158_100" mode="normal" result="shape"/></filter><linearGradient id="paint0_linear_158_100" x1="0" x2="256" y1="0" y2="256" gradientUnits="userSpaceOnUse"><stop stop-color="#9013FE"/><stop offset="1" stop-color="#6B11F4"/></linearGradient><linearGradient id="paint1_linear_158_100" x1="85.793" x2="148.541" y1="68.962" y2="175.084" gradientUnits="userSpaceOnUse"><stop stop-color="#fff"/><stop offset="1" stop-color="#F1E5FC"/></linearGradient></defs></svg>

<svg xmlns="http://www.w3.org/2000/svg" width="256" height="256" fill="none" viewBox="0 0 256 256"><rect width="256" height="256" fill="url(#a)" rx="60"/><g filter="url(#b)"><path fill="url(#c)" d="M131.97 196.16c29.68 0 47.56-14.53 47.56-38.5 0-18.12-12.76-31.23-31.7-33.3v-.76c13.91-2.27 24.84-15.2 24.84-29.63 0-20.57-16.24-33.97-40.99-33.97H76v136.16zM97.65 77.26h28.81c15.66 0 24.55 6.99 24.55 19.63 0 13.5-10.34 21.05-29.1 21.05H97.66zm0 101.63v-44.82h28.62c20.49 0 31.12 7.55 31.12 22.27s-10.34 22.55-29.87 22.55z"/><path stroke="#fff" stroke-width="2" d="M131.97 196.16c29.68 0 47.56-14.53 47.56-38.5 0-18.12-12.76-31.23-31.7-33.3v-.76c13.91-2.27 24.84-15.2 24.84-29.63 0-20.57-16.24-33.97-40.99-33.97H76v136.16zM97.65 77.26h28.81c15.66 0 24.55 6.99 24.55 19.63 0 13.5-10.34 21.05-29.1 21.05H97.66zm0 101.63v-44.82h28.62c20.49 0 31.12 7.55 31.12 22.27s-10.34 22.55-29.87 22.55z"/></g><defs><linearGradient id="a" x1="0" x2="256" y1="0" y2="256" gradientUnits="userSpaceOnUse"><stop stop-color="#9013FE"/><stop offset="1" stop-color="#6B11F4"/></linearGradient><linearGradient id="c" x1="85.79" x2="148.54" y1="68.96" y2="175.08" gradientUnits="userSpaceOnUse"><stop stop-color="#fff"/><stop offset="1" stop-color="#F1E5FC"/></linearGradient><filter id="b" width="137.53" height="170.16" x="59" y="47" color-interpolation-filters="sRGB" filterUnits="userSpaceOnUse"><feFlood flood-opacity="0" result="BackgroundImageFix"/><feColorMatrix in="SourceAlpha" result="hardAlpha" values="0 0 0 0 0 0 0 0 0 0 0 0 0 0 0 0 0 0 127 0"/><feOffset dy="4"/><feGaussianBlur stdDeviation="8"/><feColorMatrix values="0 0 0 0 0 0 0 0 0 0 0 0 0 0 0 0 0 0 0.15 0"/><feBlend in2="BackgroundImageFix" result="effect1_dropShadow_158_100"/><feBlend in="SourceGraphic" in2="effect1_dropShadow_158_100" result="shape"/></filter></defs></svg>
